X:3
T:Scottish \`a Catinaux
R:Scottish
O:France
C:Traditionnel
G:Kazimodal
Z:Ronan Keryell, arrangement http://kazimodal.trad.org
Q:1/4=90
P:C4
M:4/4
L:1/16
K:C
P:C
%%MIDI gchord fzcfczfcfzffczfc
%%MIDI chordprog 0
%%MIDI bassprog 0
|: "C"efed "Am"cGce "Em"gfef "Dm"d4 |1 "G"GABc d2de "F"fedf "C"e2c2 :|2\
    "G"GABc d2de "F"fedB "C"c4 |
|: "C"e2g2 "Am"A2Bc "Dm"dcBA "G"G4 |1 "Em"GABc "G"d2de "F"fedf "C"e2c2 :|2\
   "Em"GABc "G"d2de "F"fedB "C"c4 ||
%%text Cromorne alto
